;FLAVOR:Marlin
;TIME:3787
;Filament used: 3.35252m
;Layer height: 0.2
;MINX:34.7
;MINY:34.7
;MINZ:0.2
;MAXX:200.3
;MAXY:200.3
;MAXZ:2.2
;Generated with Cura_SteamEngine 5.3.0
M140 S60
M105
M190 S60
M104 S200
M105
M109 S200
M82 ;absolute extrusion mode
; Ender 3 Custom Start G-code
G92 E0 ; Reset Extruder
G28 ; Home all axes
G1 Z2.0 F3000 ; Move Z Axis up little to prevent scratching of Heat Bed
G1 X0.1 Y20 Z0.3 F5000.0 ; Move to start position
G1 X0.1 Y200.0 Z0.3 F1500.0 E15 ; Draw the first line
G1 X0.4 Y200.0 Z0.3 F5000.0 ; Move to side a little
G1 X0.4 Y20 Z0.3 F1500.0 E30 ; Draw the second line
G92 E0 ; Reset Extruder
G1 Z2.0 F3000 ; Move Z Axis up little to prevent scratching of Heat Bed
G1 X5 Y20 Z0.3 F5000.0 ; Move over to prevent blob squish
G92 E0
G92 E0
G1 F2700 E-5.5
;LAYER_COUNT:10
;LAYER:0
M106 S63.8
G1 F300 Z0.4
G0 F6000 X36.219 Y37.724 Z0.4
;TYPE:SKIRT
G1 F300 Z0.2
G1 F2700 E0
G1 F1200 X37.794 Y36.25 E0.10332
G1 X39.666 Y35.138 E0.2076
G1 X41.853 Y34.7 E0.31443
G1 X193.353 Y34.7 E7.57046
G1 X195.249 Y35.166 E7.66397
G1 X197.276 Y36.219 E7.77337
G1 X198.75 Y37.794 E7.87668
G1 X199.862 Y39.666 E7.98097
G1 X200.3 Y41.853 E8.08779
G1 X200.3 Y193.353 E15.34382
G1 X199.834 Y195.249 E15.43734
G1 X198.781 Y197.276 E15.54674
G1 X197.206 Y198.75 E15.65005
G1 X195.334 Y199.862 E15.75434
G1 X193.147 Y200.3 E15.86116
G1 X41.647 Y200.3 E23.11719
G1 X39.751 Y199.834 E23.2107
G1 X37.724 Y198.781 E23.3201
G1 X36.25 Y197.206 E23.42342
G1 X35.138 Y195.334 E23.5277
G1 X34.7 Y193.147 E23.63453
G1 X34.7 Y41.647 E30.89056
G1 X35.166 Y39.751 E30.98407
G1 X36.219 Y37.724 E31.09347
G0 F6000 X36.542 Y37.969
G1 F1200 X38.035 Y36.572 E31.1914
G1 X39.812 Y35.516 E31.2904
G1 X41.891 Y35.1 E31.39195
G1 X193.307 Y35.1 E38.64396
G1 X195.106 Y35.542 E38.73268
G1 X197.031 Y36.542 E38.83658
G1 X198.428 Y38.035 E38.9345
G1 X199.484 Y39.812 E39.03351
G1 X199.9 Y41.891 E39.13505
G1 X199.9 Y193.307 E46.38706
G1 X199.458 Y195.106 E46.47579
G1 X198.458 Y197.031 E46.57968
G1 X196.965 Y198.428 E46.67761
G1 X195.188 Y199.484 E46.77661
G1 X193.109 Y199.9 E46.87816
G1 X41.693 Y199.9 E54.13017
G1 X39.894 Y199.458 E54.21889
G1 X37.969 Y198.458 E54.32279
G1 X36.572 Y196.965 E54.42072
G1 X35.516 Y195.188 E54.51972
G1 X35.1 Y193.109 E54.62127
G1 X35.1 Y41.693 E61.87327
G1 X35.542 Y39.894 E61.962
G1 X36.542 Y37.969 E62.06589
G0 F6000 X36.865 Y38.214
G1 F1200 X38.276 Y36.894 E62.15843
G1 X39.958 Y35.895 E62.25213
G1 X41.93 Y35.5 E62.34845
G1 X193.26 Y35.5 E69.59634
G1 X194.964 Y35.919 E69.68039
G1 X196.786 Y36.865 E69.77871
G1 X198.106 Y38.276 E69.87125
G1 X199.105 Y39.958 E69.96495
G1 X199.5 Y41.93 E70.06127
G1 X199.5 Y193.26 E77.30916
G1 X199.081 Y194.964 E77.39321
G1 X198.135 Y196.786 E77.49153
G1 X196.724 Y198.106 E77.58407
G1 X195.042 Y199.105 E77.67777
G1 X193.07 Y199.5 E77.77409
G1 X41.74 Y199.5 E85.02198
G1 X40.036 Y199.081 E85.10603
G1 X38.214 Y198.135 E85.20435
G1 X36.894 Y196.724 E85.29689
G1 X35.895 Y195.042 E85.39059
G1 X35.5 Y193.07 E85.48691
G1 X35.5 Y41.74 E92.7348
G1 X35.919 Y40.036 E92.81884
G1 X36.865 Y38.214 E92.91717
G0 F6000 X37.188 Y38.459
G1 F1200 X38.517 Y37.216 E93.00432
G1 X40.104 Y36.273 E93.09274
G1 X41.968 Y35.9 E93.18378
G1 X193.214 Y35.9 E100.42765
G1 X194.821 Y36.295 E100.50691
G1 X196.541 Y37.188 E100.59973
G1 X197.784 Y38.517 E100.68688
G1 X198.727 Y40.104 E100.77529
G1 X199.1 Y41.968 E100.86634
G1 X199.1 Y193.214 E108.11021
G1 X198.705 Y194.821 E108.18946
G1 X197.812 Y196.541 E108.28228
G1 X196.483 Y197.784 E108.36944
G1 X194.896 Y198.727 E108.45785
G1 X193.032 Y199.1 E108.5489
G1 X41.786 Y199.1 E115.79276
G1 X40.179 Y198.705 E115.87202
G1 X38.459 Y197.812 E115.96484
G1 X37.216 Y196.483 E116.05199
G1 X36.273 Y194.896 E116.14041
G1 X35.9 Y193.032 E116.23145
G1 X35.9 Y41.786 E123.47532
G1 X36.295 Y40.179 E123.55458
G1 X37.188 Y38.459 E123.6474
G0 F6000 X37.511 Y38.704
G1 F1200 X38.758 Y37.538 E123.72916
G1 X40.25 Y36.651 E123.8123
G1 X42.006 Y36.3 E123.89806
G1 X193.168 Y36.3 E131.13791
G1 X194.678 Y36.671 E131.21238
G1 X196.296 Y37.511 E131.29969
G1 X197.462 Y38.758 E131.38146
G1 X198.349 Y40.25 E131.46459
G1 X198.7 Y42.006 E131.55036
G1 X198.7 Y193.168 E138.7902
G1 X198.329 Y194.678 E138.86467
G1 X197.489 Y196.296 E138.95199
G1 X196.242 Y197.462 E139.03375
G1 X194.75 Y198.349 E139.11689
G1 X192.994 Y198.7 E139.20265
G1 X41.832 Y198.7 E146.4425
G1 X40.322 Y198.329 E146.51697
G1 X38.704 Y197.489 E146.60428
G1 X37.538 Y196.242 E146.68605
G1 X36.651 Y194.75 E146.76918
G1 X36.3 Y192.994 E146.85495
G1 X36.3 Y41.832 E154.09479
G1 X36.671 Y40.322 E154.16926
G1 X37.511 Y38.704 E154.25658
G0 F6000 X37.834 Y38.949
G1 F1200 X38.999 Y37.86 E154.33295
G1 X40.396 Y37.029 E154.41081
G1 X42.044 Y36.7 E154.49129
G1 X193.121 Y36.7 E161.72707
G1 X194.536 Y37.048 E161.79686
G1 X196.051 Y37.834 E161.8786
G1 X197.14 Y38.999 E161.95498
G1 X197.971 Y40.396 E162.03283
G1 X198.3 Y42.044 E162.11332
G1 X198.3 Y193.121 E169.34909
G1 X197.952 Y194.536 E169.41888
G1 X197.166 Y196.051 E169.50062
G1 X196.001 Y197.14 E169.577
G1 X194.604 Y197.971 E169.65485
G1 X192.956 Y198.3 E169.73534
G1 X41.879 Y198.3 E176.97111
G1 X40.464 Y197.952 E177.0409
G1 X38.949 Y197.166 E177.12265
G1 X37.86 Y196.001 E177.19903
G1 X37.029 Y194.604 E177.27688
G1 X36.7 Y192.956 E177.35737
G1 X36.7 Y41.879 E184.59314
G1 X37.048 Y40.464 E184.66293
G1 X37.834 Y38.949 E184.74467
G0 F6000 X38.157 Y39.194
G1 F1200 X39.238 Y38.184 E184.81553
G1 X40.544 Y37.407 E184.88831
G1 X42.082 Y37.1 E184.96343
G1 X193.075 Y37.1 E192.19518
G1 X194.393 Y37.424 E192.26018
G1 X195.806 Y38.157 E192.33642
G1 X196.816 Y39.238 E192.40728
G1 X197.593 Y40.544 E192.48006
G1 X197.9 Y42.082 E192.55517
G1 X197.9 Y193.075 E199.78692
G1 X197.576 Y194.393 E199.85193
G1 X196.843 Y195.806 E199.92817
G1 X195.762 Y196.816 E199.99902
G1 X194.456 Y197.593 E200.07181
G1 X192.918 Y197.9 E200.14692
G1 X41.925 Y197.9 E207.37867
G1 X40.607 Y197.576 E207.44367
G1 X39.194 Y196.843 E207.51991
G1 X38.184 Y195.762 E207.59077
G1 X37.407 Y194.456 E207.66355
G1 X37.1 Y192.918 E207.73867
G1 X37.1 Y41.925 E214.97042
G1 X37.424 Y40.607 E215.03542
G1 X38.157 Y39.194 E215.11166
G0 F6000 X38.48 Y39.439
G1 F1200 X39.477 Y38.508 E215.17699
G1 X40.692 Y37.785 E215.24471
G1 X42.12 Y37.5 E215.31445
G1 X193.029 Y37.5 E222.54218
G1 X194.25 Y37.8 E222.60239
G1 X195.561 Y38.48 E222.67313
G1 X196.492 Y39.477 E222.73846
G1 X197.215 Y40.692 E222.80618
G1 X197.5 Y42.12 E222.87592
G1 X197.5 Y193.029 E230.10364
G1 X197.2 Y194.25 E230.16386
G1 X196.52 Y195.561 E230.2346
G1 X195.523 Y196.492 E230.29993
G1 X194.308 Y197.215 E230.36764
G1 X192.88 Y197.5 E230.43739
G1 X41.971 Y197.5 E237.66511
G1 X40.75 Y197.2 E237.72533
G1 X39.439 Y196.52 E237.79606
G1 X38.508 Y195.523 E237.8614
G1 X37.785 Y194.308 E237.92911
G1 X37.5 Y192.88 E237.99886
G1 X37.5 Y41.971 E245.22658
G1 X37.8 Y40.75 E245.2868
G1 X38.48 Y39.439 E245.35753
G0 F6000 X38.803 Y39.684
G1 F1200 X39.716 Y38.832 E245.41734
G1 X40.84 Y38.163 E245.47999
G1 X42.158 Y37.9 E245.54436
G1 X192.983 Y37.9 E252.76806
G1 X194.107 Y38.176 E252.8235
G1 X195.316 Y38.803 E252.88872
G1 X196.168 Y39.716 E252.94853
G1 X196.837 Y40.84 E253.01118
G1 X197.1 Y42.158 E253.07555
G1 X197.1 Y192.983 E260.29925
G1 X196.824 Y194.107 E260.35469
G1 X196.197 Y195.316 E260.41991
G1 X195.284 Y196.168 E260.47972
G1 X194.16 Y196.837 E260.54237
G1 X192.842 Y197.1 E260.60674
G1 X42.017 Y197.1 E267.83044
G1 X40.893 Y196.824 E267.88588
G1 X39.684 Y196.197 E267.9511
G1 X38.832 Y195.284 E268.01091
G1 X38.163 Y194.16 E268.07356
G1 X37.9 Y192.842 E268.13793
G1 X37.9 Y42.017 E275.36163
G1 X38.176 Y40.893 E275.41707
G1 X38.803 Y39.684 E275.48229
G0 F6000 X39.125 Y39.931
G1 F1200 X39.958 Y39.154 E275.53685
G1 X40.988 Y38.541 E275.59426
G1 X42.196 Y38.3 E275.65326
G1 X192.936 Y38.3 E282.87289
G1 X193.965 Y38.553 E282.92364
G1 X195.069 Y39.125 E282.98319
G1 X195.846 Y39.958 E283.03775
G1 X196.459 Y40.988 E283.09516
G1 X196.7 Y42.196 E283.15415
G1 X196.7 Y192.936 E290.37378
G1 X196.447 Y193.965 E290.42454
G1 X195.875 Y195.069 E290.48409
G1 X195.042 Y195.846 E290.53864
G1 X194.012 Y196.459 E290.59605
G1 X192.804 Y196.7 E290.65505
G1 X42.064 Y196.7 E297.87468
G1 X41.035 Y196.447 E297.92543
G1 X39.931 Y195.875 E297.98498
G1 X39.154 Y195.042 E298.03954
G1 X38.541 Y194.012 E298.09695
G1 X38.3 Y192.804 E298.15594
G1 X38.3 Y42.064 E305.37558
G1 X38.553 Y41.035 E305.42633
G1 X39.125 Y39.931 E305.48588
G0 F6000 X39.447 Y40.178
G1 F1200 X40.2 Y39.476 E305.53518
G1 X41.136 Y38.919 E305.58735
G1 X42.234 Y38.7 E305.64097
G1 X192.89 Y38.7 E312.85658
G1 X193.822 Y38.929 E312.90255
G1 X194.822 Y39.447 E312.95649
G1 X195.524 Y40.2 E313.00579
G1 X196.081 Y41.136 E313.05796
G1 X196.3 Y42.234 E313.11158
G1 X196.3 Y192.89 E320.32719
G1 X196.071 Y193.822 E320.37316
G1 X195.553 Y194.822 E320.4271
G1 X194.8 Y195.524 E320.4764
G1 X193.864 Y196.081 E320.52857
G1 X192.766 Y196.3 E320.58219
G1 X42.11 Y196.3 E327.7978
G1 X41.178 Y196.071 E327.84377
G1 X40.178 Y195.553 E327.89771
G1 X39.476 Y194.8 E327.94701
G1 X38.919 Y193.864 E327.99918
G1 X38.7 Y192.766 E328.0528
G1 X38.7 Y42.11 E335.26841
G1 X38.929 Y41.178 E335.31438
G1 X39.447 Y40.178 E335.36831
G0 F6000 X39.769 Y40.425
G1 F1200 X40.442 Y39.798 E335.41237
G1 X41.284 Y39.297 E335.45929
G1 X42.272 Y39.1 E335.50755
G1 X192.844 Y39.1 E342.71913
G1 X193.679 Y39.305 E342.76031
G1 X194.575 Y39.769 E342.80864
G1 X195.202 Y40.442 E342.85269
G1 X195.703 Y41.284 E342.89962
G1 X195.9 Y42.272 E342.94787
G1 X195.9 Y192.844 E350.15945
G1 X195.695 Y193.679 E350.20063
G1 X195.231 Y194.575 E350.24896
G1 X194.558 Y195.202 E350.29301
G1 X193.716 Y195.703 E350.33994
G1 X192.728 Y195.9 E350.38819
G1 X42.156 Y195.9 E357.59978
G1 X41.321 Y195.695 E357.64096
G1 X40.425 Y195.231 E357.68928
G1 X39.798 Y194.558 E357.73334
G1 X39.297 Y193.716 E357.78026
G1 X39.1 Y192.728 E357.82851
G1 X39.1 Y42.156 E365.0401
G1 X39.305 Y41.321 E365.08128
G1 X39.769 Y40.425 E365.1296
G0 F6000 X40.091 Y40.672
G1 F1200 X40.684 Y40.12 E365.16841
G1 X41.432 Y39.675 E365.21009
G1 X42.31 Y39.5 E365.25297
G1 X192.798 Y39.5 E372.46053
G1 X193.536 Y39.681 E372.49693
G1 X194.328 Y40.091 E372.53964
G1 X194.88 Y40.684 E372.57844
G1 X195.325 Y41.432 E372.62013
G1 X195.5 Y42.31 E372.66301
G1 X195.5 Y192.798 E379.87057
G1 X195.319 Y193.536 E379.90696
G1 X194.909 Y194.328 E379.94968
G1 X194.316 Y194.88 E379.98848
G1 X193.568 Y195.325 E380.03016
G1 X192.69 Y195.5 E380.07304
G1 X42.202 Y195.5 E387.2806
G1 X41.464 Y195.319 E387.317
G1 X40.672 Y194.909 E387.35971
G1 X40.12 Y194.316 E387.39851
G1 X39.675 Y193.568 E387.4402
G1 X39.5 Y192.69 E387.48308
G1 X39.5 Y42.202 E394.69064
G1 X39.681 Y41.464 E394.72703
G1 X40.091 Y40.672 E394.76975
G0 F6000 X40.414 Y40.917
G1 F1200 X40.923 Y40.444 E394.80303
G1 X41.58 Y40.053 E394.83964
G1 X42.348 Y39.9 E394.87715
G1 X192.748 Y39.9 E402.0805
G1 X193.397 Y40.059 E402.1125
G1 X194.083 Y40.414 E402.14949
G1 X194.556 Y40.923 E402.18277
G1 X194.947 Y41.58 E402.21939
G1 X195.1 Y42.348 E402.2569
G1 X195.1 Y192.748 E409.46024
G1 X194.941 Y193.397 E409.49225
G1 X194.586 Y194.083 E409.52924
G1 X194.077 Y194.556 E409.56252
G1 X193.42 Y194.947 E409.59914
G1 X192.652 Y195.1 E409.63664
G1 X42.252 Y195.1 E416.83999
G1 X41.603 Y194.941 E416.87199
G1 X40.917 Y194.586 E416.90899
G1 X40.444 Y194.077 E416.94227
G1 X40.053 Y193.42 E416.97889
G1 X39.9 Y192.652 E417.01639
G1 X39.9 Y42.252 E424.21974
G1 X40.059 Y41.603 E424.25174
G1 X40.414 Y40.917 E424.28874
G0 F6000 X40.737 Y41.162
G1 F1200 X41.162 Y40.768 E424.31649
G1 X41.728 Y40.431 E424.34804
G1 X42.386 Y40.3 E424.38017
G1 X192.698 Y40.3 E431.57931
G1 X193.258 Y40.437 E431.60692
G1 X193.838 Y40.737 E431.63819
G1 X194.232 Y41.162 E431.66595
G1 X194.569 Y41.728 E431.6975
G1 X194.7 Y42.386 E431.72963
G1 X194.7 Y192.698 E438.92877
G1 X194.563 Y193.258 E438.95638
G1 X194.263 Y193.838 E438.98765
G1 X193.838 Y194.232 E439.01541
G1 X193.272 Y194.569 E439.04696
G1 X192.614 Y194.7 E439.07909
G1 X42.302 Y194.7 E446.27822
G1 X41.742 Y194.563 E446.30584
G1 X41.162 Y194.263 E446.33711
G1 X40.768 Y193.838 E446.36487
G1 X40.431 Y193.272 E446.39642
G1 X40.3 Y192.614 E446.42855
G1 X40.3 Y42.302 E453.62768
G1 X40.437 Y41.742 E453.65529
G1 X40.737 Y41.162 E453.68657
G0 F6000 X41.06 Y41.408
G1 F1200 X41.401 Y41.092 E453.70884
G1 X41.876 Y40.809 E453.73532
G1 X42.424 Y40.7 E453.76208
G1 X192.648 Y40.7 E460.95699
G1 X193.119 Y40.815 E460.98022
G1 X193.592 Y41.06 E461.00573
G1 X193.908 Y41.401 E461.028
G1 X194.191 Y41.876 E461.05448
G1 X194.3 Y42.424 E461.08124
G1 X194.3 Y192.648 E468.27615
G1 X194.185 Y193.119 E468.29938
G1 X193.94 Y193.592 E468.32489
G1 X193.599 Y193.908 E468.34715
G1 X193.124 Y194.191 E468.37364
G1 X192.576 Y194.3 E468.4004
G1 X42.352 Y194.3 E475.59531
G1 X41.881 Y194.185 E475.61854
G1 X41.408 Y193.94 E475.64405
G1 X41.092 Y193.599 E475.66631
G1 X40.809 Y193.124 E475.6928
G1 X40.7 Y192.576 E475.71956
G1 X40.7 Y42.352 E482.91447
G1 X40.815 Y41.881 E482.9377
G1 X41.06 Y41.408 E482.96321
G0 F6000 X41.383 Y41.654
G1 F1200 X41.64 Y41.416 E482.97998
G1 X42.024 Y41.187 E483.0014
G1 X42.462 Y41.1 E483.02279
G1 X192.598 Y41.1 E490.21349
G1 X192.98 Y41.193 E490.23232
G1 X193.346 Y41.383 E490.25207
G1 X193.584 Y41.64 E490.26885
G1 X193.813 Y42.024 E490.29026
G1 X193.9 Y42.462 E490.31165
G1 X193.9 Y192.598 E497.50235
G1 X193.807 Y192.98 E497.52118
G1 X193.617 Y193.346 E497.54093
G1 X193.36 Y193.584 E497.55771
G1 X192.976 Y193.813 E497.57912
G1 X192.538 Y193.9 E497.60051
G1 X42.402 Y193.9 E504.79121
G1 X42.02 Y193.807 E504.81004
G1 X41.654 Y193.617 E504.82979
G1 X41.416 Y193.36 E504.84657
G1 X41.187 Y192.976 E504.86798
G1 X41.1 Y192.538 E504.88937
G1 X41.1 Y42.402 E512.08007
G1 X41.193 Y42.02 E512.0989
G1 X41.383 Y41.654 E512.11865
G0 F6000 X41.845 Y41.76
G1 F1200 X42.172 Y41.565 E512.13689
G1 X42.5 Y41.5 E512.1529
G1 X192.549 Y41.5 E519.33944
G1 X192.838 Y41.57 E519.35368
G1 X193.101 Y41.707 E519.36788
G1 X193.24 Y41.845 E519.37726
G1 X193.435 Y42.172 E519.3955
G1 X193.5 Y42.5 E519.41151
G1 X193.5 Y192.549 E526.59805
G1 X193.43 Y192.838 E526.61229
G1 X193.293 Y193.101 E526.62649
G1 X193.155 Y193.24 E526.63588
G1 X192.828 Y193.435 E526.65411
G1 X192.5 Y193.5 E526.67013
G1 X42.451 Y193.5 E533.85666
G1 X42.162 Y193.43 E533.8709
G1 X41.899 Y193.293 E533.88511
G1 X41.76 Y193.155 E533.89449
G1 X41.565 Y192.828 E533.91272
G1 X41.5 Y192.5 E533.92874
G1 X41.5 Y42.451 E541.11527
G1 X41.57 Y42.162 E541.12951
G1 X41.707 Y41.899 E541.14372
G1 X41.845 Y41.76 E541.1531
G0 F6000 X42.05 Y42.104
G1 F1200 X42.32 Y41.943 E541.16815
G1 X42.5 Y41.9 E541.17702
G1 X192.5 Y41.9 E548.36121
G1 X192.744 Y41.959 E548.37323
G1 X192.896 Y42.05 E548.38172
G1 X193.057 Y42.32 E548.39677
G1 X193.1 Y42.5 E548.40564
G1 X193.1 Y192.5 E555.58982
G1 X193.041 Y192.744 E555.60185
G1 X192.95 Y192.896 E555.61033
G1 X192.68 Y193.057 E555.62539
G1 X192.5 Y193.1 E555.63425
G1 X42.5 Y193.1 E562.81844
G1 X42.256 Y193.041 E562.83046
G1 X42.104 Y192.95 E562.83895
G1 X41.943 Y192.68 E562.85401
G1 X41.9 Y192.5 E562.86287
G1 X41.9 Y42.5 E570.04706
G1 X41.959 Y42.256 E570.05908
G1 X42.05 Y42.104 E570.06757
G0 F6000 X42.339 Y42.381
G1 F1200 X42.5 Y42.3 E570.0762
G1 X192.5 Y42.3 E577.26039
G1 X192.619 Y42.339 E577.26638
G1 X192.7 Y42.5 E577.27502
G1 X192.7 Y192.5 E584.45921
G1 X192.661 Y192.619 E584.4652
G1 X192.5 Y192.7 E584.47384
G1 X42.5 Y192.7 E591.65802
G1 X42.381 Y192.661 E591.66402
G1 X42.3 Y192.5 E591.67265
G1 X42.3 Y42.5 E598.85684
G1 X42.339 Y42.381 E598.86284
G1 F2700 E593.36284
G1 F300 Z0.4
G0 F6000 X45.7 Y48.723 Z0.4
G1 F300 Z0.2
G1 F2700 E598.86284
G1 F1200 X46.219 Y47.724 E598.91676
G1 X47.794 Y46.25 E599.02008
G1 X48.719 Y45.7 E599.07162
G0 F6000 X49.502 Y45.7
G1 F1200 X48.035 Y46.572 E599.15335
G1 X46.542 Y47.969 E599.25128
G1 X45.7 Y49.591 E599.33881
G0 F6000 X45.7 Y50.927
G1 F1200 X45.919 Y50.036 E599.38276
G1 X46.865 Y48.214 E599.48108
G1 X48.276 Y46.894 E599.57362
G1 X49.958 Y45.895 E599.66732
G1 X50.932 Y45.7 E599.71489
G1 F2700 E594.21489
G1 F300 Z0.4
G0 F6000 X47.188 Y48.459 Z0.4
G1 F300 Z0.2
G1 F2700 E599.71489
G1 F1200 X48.517 Y47.216 E599.80205
G1 X50.104 Y46.273 E599.89046
G1 X51.968 Y45.9 E599.98151
G1 X183.214 Y45.9 E606.26748
